SVG_Azure_Grouped/Networking/DNS Forwarding Ruleset.svg

<?xml version="1.0" encoding="UTF-8" standalone="no"?>
<!-- Generated by Microsoft Visio, SVG Export DNS Forwarding Ruleset.svg Page-1 -->

<svg
   xmlns:dc="http://purl.org/dc/elements/1.1/"
   xmlns:cc="http://creativecommons.org/ns#"
   xmlns:rdf="http://www.w3.org/1999/02/22-rdf-syntax-ns#"
   xmlns:svg="http://www.w3.org/2000/svg"
   xmlns="http://www.w3.org/2000/svg"
   xmlns:sodipodi="http://sodipodi.sourceforge.net/DTD/sodipodi-0.dtd"
   xmlns:inkscape="http://www.inkscape.org/namespaces/inkscape"
   width="0.62986141in"
   height="0.78736913in"
   viewBox="0 0 45.349765 56.69056"
   xml:space="preserve"
   class="st7"
   version="1.1"
   id="svg57"
   sodipodi:docname="DNS Forwarding Ruleset.svg"
   style="font-size:12px;overflow:visible;color-interpolation-filters:sRGB;fill:none;fill-rule:evenodd;stroke-linecap:square;stroke-miterlimit:3"
   inkscape:version="0.92.5 (2060ec1f9f, 2020-04-08)"><metadata
   id="metadata61"><rdf:RDF><cc:Work
       rdf:about=""><dc:format>image/svg+xml</dc:format><dc:type
         rdf:resource="http://purl.org/dc/dcmitype/StillImage" /></cc:Work></rdf:RDF></metadata><sodipodi:namedview
   pagecolor="#ffffff"
   bordercolor="#666666"
   borderopacity="1"
   objecttolerance="10"
   gridtolerance="10"
   guidetolerance="10"
   inkscape:pageopacity="0"
   inkscape:pageshadow="2"
   inkscape:window-width="640"
   inkscape:window-height="480"
   id="namedview59"
   showgrid="false"
   inkscape:zoom="1.4193037"
   inkscape:cx="30.236018"
   inkscape:cy="37.786669"
   inkscape:window-x="0"
   inkscape:window-y="0"
   inkscape:window-maximized="0"
   inkscape:current-layer="svg57" />
	<style
   type="text/css"
   id="style2">
	<![CDATA[
		.st1 {fill:#5ea0ef;stroke:none;stroke-linecap:butt;stroke-width:34}
		.st2 {fill:url(#grad0-8)}
		.st3 {stroke:none;stroke-linecap:butt;stroke-width:34}
		.st4 {fill:#0078d4;stroke:none;stroke-linecap:butt;stroke-width:34}
		.st5 {fill:#50e6ff;stroke:none;stroke-linecap:butt;stroke-width:34}
		.st6 {fill:#c3f1ff;stroke:none;stroke-linecap:butt;stroke-width:34}
		.st7 {fill:none;fill-rule:evenodd;font-size:12px;overflow:visible;stroke-linecap:square;stroke-miterlimit:3}
	]]>
	</style>

	<defs
   id="Patterns_And_Gradients">
		<linearGradient
   id="grad0-8"
   x1="-8.8960711e-06"
   y1="60.836975"
   x2="50.704205"
   y2="60.836975"
   gradientTransform="scale(0.89440314,1.1180641)"
   gradientUnits="userSpaceOnUse">
			<stop
   offset="0"
   stop-color="#0078d4"
   stop-opacity="1"
   id="stop4" />
			<stop
   offset="1"
   stop-color="#5ea0ef"
   stop-opacity="1"
   id="stop6" />
		</linearGradient>
	</defs>
	<g
   id="g55"
   transform="translate(-34.000297,-34.003935)">
		<title
   id="title10">Page-1</title>
		<g
   id="group18054-1"
   transform="translate(34,-34.0157)">
			<title
   id="title12">DNS Forwarding Ruleset.18054</title>
			<g
   id="group18055-2">
				<title
   id="title14">Sheet.18055</title>
				<g
   id="shape18056-3"
   transform="translate(0.314447,-0.406299)">
					<title
   id="title16">Sheet.18056</title>
					<path
   d="M 25.65,68.83 H 1.88 A 1.88668,1.92756 -180 0 0 0,70.75 v 52.03 a 1.88668,1.92756 -180 0 0 1.88,1.93 h 40.94 a 1.88668,1.92756 -180 0 0 1.89,-1.93 V 88.36 A 1.8836,1.92441 -180 0 0 42.82,86.43 H 29.23 A 1.84969,1.88976 0 0 1 27.38,84.54 V 70.75 a 1.84969,1.88976 -180 0 0 -1.73,-1.92 z"
   class="st1"
   id="path18"
   inkscape:connector-curvature="0"
   style="fill:#5ea0ef;stroke:none;stroke-width:34;stroke-linecap:butt" />
				</g>
				<g
   id="shape18057-5">
					<title
   id="title21">Sheet.18057</title>
					<path
   d="m 24.95,70.85 v 13.07 a 4.69512,4.79685 -180 0 0 4.71,4.81 h 12.87 v 33.14 H 2.84 V 70.85 h 22.14 z m 1.01,-2.83 H 1.92 A 1.8836,1.92441 -180 0 0 0,69.91 v 52.87 a 1.8836,1.92441 -180 0 0 1.88,1.93 h 41.56 a 1.8836,1.92441 -180 0 0 1.91,-1.89 V 87.81 A 1.8836,1.92441 -180 0 0 43.47,85.89 H 29.66 A 1.88668,1.92756 0 0 1 27.78,83.96 V 69.94 a 1.8836,1.92441 -180 0 0 -1.82,-1.92 z"
   class="st2"
   id="path23"
   inkscape:connector-curvature="0"
   style="fill:url(#grad0-8)" />
					<path
   d="m 24.95,70.85 v 13.07 a 4.69512,4.79685 -180 0 0 4.71,4.81 h 12.87 v 33.14 H 2.84 V 70.85 h 22.14 m 0.98,-2.83 H 1.92 A 1.8836,1.92441 -180 0 0 0,69.91 v 52.87 a 1.8836,1.92441 -180 0 0 1.88,1.93 h 41.56 a 1.8836,1.92441 -180 0 0 1.91,-1.89 V 87.81 A 1.8836,1.92441 -180 0 0 43.47,85.89 H 29.66 A 1.88668,1.92756 0 0 1 27.78,83.96 V 69.94 a 1.8836,1.92441 -180 0 0 -1.82,-1.92"
   class="st3"
   id="path25"
   inkscape:connector-curvature="0"
   style="stroke:none;stroke-width:34;stroke-linecap:butt" />
				</g>
				<g
   id="shape18058-10"
   transform="translate(27.101,-38.4819)">
					<title
   id="title28">Sheet.18058</title>
					<path
   d="M 17.53,124.71 0,106.9 v 14.43 a 3.30477,3.37638 -180 0 0 3.31,3.38 z"
   class="st4"
   id="path30"
   inkscape:connector-curvature="0"
   style="fill:#0078d4;stroke:none;stroke-width:34;stroke-linecap:butt" />
				</g>
				<g
   id="shape18059-12"
   transform="translate(7.40183,-23.4646)">
					<title
   id="title33">Sheet.18059</title>
					<path
   d="m 1.34,124.68 v -4.46 a 2.06857,2.11339 0 0 1 -0.61,0.24 L 0,120.66 v -1.39 a 7.22919,7.38583 -180 0 0 1.02,-0.4 4.22037,4.31181 -180 0 0 1.02,-0.46 H 3.1 v 6.3 z"
   class="st5"
   id="path35"
   inkscape:connector-curvature="0"
   style="fill:#50e6ff;stroke:none;stroke-width:34;stroke-linecap:butt" />
				</g>
				<g
   id="shape18060-14"
   transform="translate(14.9609,-25.4551)">
					<title
   id="title38">Sheet.18060</title>
					<path
   d="M 21.77,124.71 H 1.16 a 1.15605,1.1811 0 0 1 0,-2.36 h 20.61 a 1.15605,1.1811 0 0 1 0,2.36 z"
   class="st6"
   id="path40"
   inkscape:connector-curvature="0"
   style="fill:#c3f1ff;stroke:none;stroke-width:34;stroke-linecap:butt" />
				</g>
				<g
   id="shape18061-16"
   transform="translate(7.43884,-8.97638)">
					<title
   id="title43">Sheet.18061</title>
					<path
   d="m 0.03,124.71 v -0.51 a 3.34793,3.42047 0 0 1 0,-0.88 6.96099,7.11181 0 0 1 0.36,-0.74 6.26736,6.40315 0 0 1 0.93,-0.88 2.91634,2.97953 -180 0 0 0.69,-0.57 0.308281,0.314961 0 0 1 0.231211,-0.31496 0.465505,0.475591 -180 0 0 0,-0.37166 C 2.24,120 2.01,119.81 1.52,119.81 a 2.23196,2.28031 -180 0 0 -1.43,0.58 v -1.52 a 3.63155,3.71024 0 0 1 0.93,-0.38 4.21729,4.30866 0 0 1 0.92,0 2.30903,2.35906 0 0 1 1.53,0.51 1.69246,1.72913 0 0 1 0.57,1.3 2.46625,2.51969 0 0 1 -0.31,1.15 3.75178,3.83307 0 0 1 -1.06,0.94 l -0.66,0.41 a 0.594983,0.607874 -180 0 0 -0.200383,0.33701 L 4.22,123.14 v 1.42 z"
   class="st5"
   id="path45"
   inkscape:connector-curvature="0"
   style="fill:#50e6ff;stroke:none;stroke-width:34;stroke-linecap:butt" />
				</g>
				<g
   id="shape18062-18"
   transform="translate(14.9609,-10.9228)">
					<title
   id="title48">Sheet.18062</title>
					<path
   d="M 21.77,124.71 H 1.16 a 1.15605,1.1811 0 0 1 0,-2.36 h 20.61 a 1.15605,1.1811 0 0 1 0,2.36 z"
   class="st6"
   id="path50"
   inkscape:connector-curvature="0"
   style="fill:#c3f1ff;stroke:none;stroke-width:34;stroke-linecap:butt" />
				</g>
			</g>
		</g>
	</g>
</svg>

<?xml version="1.0" encoding="UTF-8" standalone="no"?>
<!DOCTYPE svg PUBLIC "-//W3C//DTD SVG 1.1//EN" "http://www.w3.org/Graphics/SVG/1.1/DTD/svg11.dtd">
<!-- Generated by Microsoft Visio, SVG Export DNS Forwarding Ruleset.svg Page-1 -->
<svg xmlns="http://www.w3.org/2000/svg" xmlns:xlink="http://www.w3.org/1999/xlink" xmlns:ev="http://www.w3.org/2001/xml-events"
		width="1.57437in" height="1.73207in" viewBox="0 0 113.354 124.709" xml:space="preserve" color-interpolation-filters="sRGB"
		class="st7">
	<style type="text/css">
	<![CDATA[
		.st1 {fill:#5ea0ef;stroke:none;stroke-linecap:butt;stroke-width:34}
		.st2 {fill:url(#grad0-8)}
		.st3 {stroke:none;stroke-linecap:butt;stroke-width:34}
		.st4 {fill:#0078d4;stroke:none;stroke-linecap:butt;stroke-width:34}
		.st5 {fill:#50e6ff;stroke:none;stroke-linecap:butt;stroke-width:34}
		.st6 {fill:#c3f1ff;stroke:none;stroke-linecap:butt;stroke-width:34}
		.st7 {fill:none;fill-rule:evenodd;font-size:12px;overflow:visible;stroke-linecap:square;stroke-miterlimit:3}
	]]>
	</style>

	<defs id="Patterns_And_Gradients">
		<linearGradient id="grad0-8" x1="0" y1="0" x2="1" y2="0" gradientTransform="rotate(-90 0.5 0.5)">
			<stop offset="0" stop-color="#0078d4" stop-opacity="1"/>
			<stop offset="1" stop-color="#5ea0ef" stop-opacity="1"/>
		</linearGradient>
	</defs>
	<g>
		<title>Page-1</title>
		<g id="group17640-1" transform="translate(34,-34.0157)">
			<title>DNS Forwarding Ruleset.17640</title>
			<g id="group17641-2">
				<title>Sheet.17641</title>
				<g id="shape17642-3" transform="translate(0.314447,-0.406299)">
					<title>Sheet.17642</title>
					<path d="M25.65 68.83 L1.88 68.83 A1.88668 1.92756 -180 0 0 0 70.75 L0 122.78 A1.88668 1.92756 -180 0 0 1.88
								 124.71 L42.82 124.71 A1.88668 1.92756 -180 0 0 44.71 122.78 L44.71 88.36 A1.8836 1.92441 -180 0
								 0 42.82 86.43 L29.23 86.43 A1.84969 1.88976 0 0 1 27.38 84.54 L27.38 70.75 A1.84969 1.88976 -180
								 0 0 25.65 68.83 Z" class="st1"/>
				</g>
				<g id="shape17643-5">
					<title>Sheet.17643</title>
					<path d="M24.95 70.85 L24.95 83.92 A4.69512 4.79685 -180 0 0 29.66 88.73 L42.53 88.73 L42.53 121.87 L2.84 121.87
								 L2.84 70.85 L24.98 70.85 L24.95 70.85 ZM25.96 68.02 L1.92 68.02 A1.8836 1.92441 -180 0 0 -0 69.91
								 L0 122.78 A1.8836 1.92441 -180 0 0 1.88 124.71 L43.44 124.71 A1.8836 1.92441 -180 0 0 45.35 122.82
								 L45.35 87.81 A1.8836 1.92441 -180 0 0 43.47 85.89 L29.66 85.89 A1.88668 1.92756 0 0 1 27.78 83.96
								 L27.78 69.94 A1.8836 1.92441 -180 0 0 25.96 68.02 Z" class="st2"/>
					<path d="M24.95 70.85 L24.95 83.92 A4.69512 4.79685 -180 0 0 29.66 88.73 L42.53 88.73 L42.53 121.87 L2.84 121.87
								 L2.84 70.85 L24.98 70.85M25.96 68.02 L1.92 68.02 A1.8836 1.92441 -180 0 0 -0 69.91 L0 122.78 A1.8836
								 1.92441 -180 0 0 1.88 124.71 L43.44 124.71 A1.8836 1.92441 -180 0 0 45.35 122.82 L45.35 87.81 A1.8836
								 1.92441 -180 0 0 43.47 85.89 L29.66 85.89 A1.88668 1.92756 0 0 1 27.78 83.96 L27.78 69.94 A1.8836
								 1.92441 -180 0 0 25.96 68.02" class="st3"/>
				</g>
				<g id="shape17644-10" transform="translate(27.101,-38.4819)">
					<title>Sheet.17644</title>
					<path d="M17.53 124.71 L0 106.9 L0 121.33 A3.30477 3.37638 -180 0 0 3.31 124.71 L17.53 124.71 Z" class="st4"/>
				</g>
				<g id="shape17645-12" transform="translate(7.40183,-23.4646)">
					<title>Sheet.17645</title>
					<path d="M1.34 124.68 L1.34 120.22 A2.06857 2.11339 0 0 1 0.73 120.46 L0 120.66 L0 119.27 A7.22919 7.38583 -180
								 0 0 1.02 118.87 A4.22037 4.31181 -180 0 0 2.04 118.41 L3.1 118.41 L3.1 124.71 L1.34 124.68 Z"
							class="st5"/>
				</g>
				<g id="shape17646-14" transform="translate(14.9609,-25.4551)">
					<title>Sheet.17646</title>
					<path d="M21.77 124.71 L1.16 124.71 A1.15605 1.1811 0 0 1 1.16 122.35 L21.77 122.35 A1.15605 1.1811 0 0 1 21.77
								 124.71 Z" class="st6"/>
				</g>
				<g id="shape17647-16" transform="translate(7.43884,-8.97638)">
					<title>Sheet.17647</title>
					<path d="M0.03 124.71 L0.03 124.2 A3.34793 3.42047 0 0 1 0.03 123.32 A6.96099 7.11181 0 0 1 0.39 122.58 A6.26736
								 6.40315 0 0 1 1.32 121.7 A2.91634 2.97953 -180 0 0 2.01 121.13 a0.308281 0.314961 0 0 1 0.231211
								 -0.314961 a0.465505 0.475591 -180 0 0 -4.44089E-16 -0.371654 C2.24 120 2.01 119.81 1.52 119.81 A2.23196
								 2.28031 -180 0 0 0.09 120.39 L0.09 118.87 A3.63155 3.71024 0 0 1 1.02 118.49 A4.21729 4.30866 0
								 0 1 1.94 118.49 A2.30903 2.35906 0 0 1 3.47 119 A1.69246 1.72913 0 0 1 4.04 120.3 A2.46625 2.51969
								 0 0 1 3.73 121.45 A3.75178 3.83307 0 0 1 2.67 122.39 L2.01 122.8 a0.594983 0.607874 -180 0 0 -0.200383
								 0.337008 L4.22 123.14 L4.22 124.56 L0.03 124.71 Z" class="st5"/>
				</g>
				<g id="shape17648-18" transform="translate(14.9609,-10.9228)">
					<title>Sheet.17648</title>
					<path d="M21.77 124.71 L1.16 124.71 A1.15605 1.1811 0 0 1 1.16 122.35 L21.77 122.35 A1.15605 1.1811 0 0 1 21.77
								 124.71 Z" class="st6"/>
				</g>
			</g>
		</g>
	</g>
</svg>
